ix/color-swatch_bold.svg

<svg viewBox="0 0 24 24" fill="none" xmlns="http://www.w3.org/2000/svg" height="1em" width="1em">
  <path d="M22.0009 16.5V19.5C22.0009 20.88 20.8809 22 19.5009 22H12.3609C11.4709 22 11.0309 20.93 11.6509 20.3L17.5209 14.3C17.7109 14.11 17.9709 14 18.2309 14H19.5009C20.8809 14 22.0009 15.12 22.0009 16.5Z" fill="#292D32"/>
  <path d="M18.3702 11.2895L15.6602 13.9995L13.2002 16.4495C12.5702 17.0795 11.4902 16.6395 11.4902 15.7495C11.4902 12.5395 11.4902 7.25953 11.4902 7.25953C11.4902 6.98953 11.6002 6.73953 11.7802 6.54953L12.7002 5.62953C13.6802 4.64953 15.2602 4.64953 16.2402 5.62953L18.3602 7.74953C19.3502 8.72953 19.3502 10.3095 18.3702 11.2895Z" fill="#292D32"/>
  <path d="M7.5 2H4.5C3 2 2 3 2 4.5V18C2 18.27 2.03 18.54 2.08 18.8C2.11 18.93 2.14 19.06 2.18 19.19C2.23 19.34 2.28 19.49 2.34 19.63C2.35 19.64 2.35 19.65 2.35 19.65C2.36 19.65 2.36 19.65 2.35 19.66C2.49 19.94 2.65 20.21 2.84 20.46C2.95 20.59 3.06 20.71 3.17 20.83C3.28 20.95 3.4 21.05 3.53 21.15L3.54 21.16C3.79 21.35 4.06 21.51 4.34 21.65C4.35 21.64 4.35 21.64 4.35 21.65C4.5 21.72 4.65 21.77 4.81 21.82C4.94 21.86 5.07 21.89 5.2 21.92C5.46 21.97 5.73 22 6 22C6.41 22 6.83 21.94 7.22 21.81C7.33 21.77 7.44 21.73 7.55 21.68C7.9 21.54 8.24 21.34 8.54 21.08C8.63 21.01 8.73 20.92 8.82 20.83L8.86 20.79C9.56 20.07 10 19.08 10 18V4.5C10 3 9 2 7.5 2ZM6 19.5C5.17 19.5 4.5 18.83 4.5 18C4.5 17.17 5.17 16.5 6 16.5C6.83 16.5 7.5 17.17 7.5 18C7.5 18.83 6.83 19.5 6 19.5Z" fill="#292D32"/>
</svg>

<svg viewBox="0 0 24 24" fill="none" xmlns="http://www.w3.org/2000/svg" height="1em" width="1em">
  <path d="M22 16.5v3a2.5 2.5 0 0 1-2.5 2.5h-7.14c-.89 0-1.33-1.07-.71-1.7l5.87-6c.19-.19.45-.3.71-.3h1.27a2.5 2.5 0 0 1 2.5 2.5Zm-3.63-5.21L15.66 14l-2.46 2.45c-.63.63-1.71.19-1.71-.7V7.26c0-.27.11-.52.29-.71l.92-.92c.98-.98 2.56-.98 3.54 0l2.12 2.12c.99.98.99 2.56.01 3.54ZM7.5 2h-3C3 2 2 3 2 4.5V18c0 .27.03.54.08.8.03.13.06.26.1.39.05.15.1.3.16.44.01.01.01.02.01.02.01 0 .01 0 0 .01.14.28.3.55.49.8.11.13.22.25.33.37.11.12.23.22.36.32l.01.01c.25.19.52.35.8.49.01-.01.01-.01.01 0 .15.07.3.12.46.17.13.04.26.07.39.1.26.05.53.08.8.08.41 0 .83-.06 1.22-.19.11-.04.22-.08.33-.13.35-.14.69-.34.99-.6.09-.07.19-.16.28-.25l.04-.04C9.56 20.07 10 19.08 10 18V4.5C10 3 9 2 7.5 2ZM6 19.5c-.83 0-1.5-.67-1.5-1.5s.67-1.5 1.5-1.5 1.5.67 1.5 1.5-.67 1.5-1.5 1.5Z" fill="#292D32"/>
</svg>
